icon/lg/opensource.svg

<?xml version="1.0" encoding="UTF-8" standalone="no"?>
<svg viewBox="0 0 256 248" version="1.1" xmlns="http://www.w3.org/2000/svg" xmlns:xlink="http://www.w3.org/1999/xlink" preserveAspectRatio="xMidYMid" height="1em" width="1em">
  <g>
    <path d="M143.337088,167.832012 C165.399793,159.359312 176.418809,134.600586 167.948778,112.530928 C159.478747,90.4617104 134.72738,79.4392224 112.665115,87.9114818 C90.6024096,96.384182 79.5838348,121.143349 88.0534251,143.212566 C92.3992565,154.536974 101.344716,163.484812 112.665115,167.832012 L83.8415422,242.961058 C20.2997866,218.565076 -11.4398072,147.260933 12.9489294,83.6991531 C37.3376661,20.1373733 108.618905,-11.6122228 172.160661,12.7841996 C235.702417,37.180622 267.44201,108.484324 243.053274,172.046104 C230.537033,204.666198 204.770478,230.440872 172.160661,242.961058 L143.337088,167.832012" fill="#3DA639"/>
    <path d="M172.160661,247.368643 C171.54864,247.368643 170.937501,247.241263 170.36778,246.987386 C169.300158,246.512249 168.465625,245.631613 168.047036,244.540736 L139.223463,169.41125 C138.351477,167.138699 139.486072,164.589793 141.757907,163.717091 C151.329487,160.041606 158.89757,152.857243 163.067153,143.4876 C167.237177,134.118397 167.509921,123.685203 163.835153,114.110606 C156.249886,94.3452333 134.003883,84.4378643 114.244296,92.026403 C94.4855904,99.6145009 84.5813425,121.867956 92.1670499,141.632888 C96.059043,151.77474 104.106079,159.823872 114.244296,163.717091 C116.516131,164.589793 117.650726,167.138699 116.77874,169.41125 L87.955167,244.540736 C87.5365783,245.631613 86.7016041,246.512249 85.6339828,246.987386 C84.5668021,247.463406 83.3542169,247.49514 82.2628021,247.075979 C50.4324406,234.855069 25.2646885,210.9664 11.3961859,179.810065 C-2.4723167,148.65417 -3.38175559,113.960308 8.83530465,82.1199155 C21.0523649,50.2795231 44.9339484,25.1038398 76.0800275,11.2309667 C107.226107,-2.64190631 141.90904,-3.5516318 173.739401,8.66927846 C205.569762,20.8901887 230.737515,44.7788574 244.606017,75.9351925 C258.47452,107.091087 259.384399,141.78495 247.166898,173.625342 C234.223697,207.35747 207.460461,234.129139 173.739401,247.075979 C173.230485,247.271676 172.695133,247.368643 172.160661,247.368643 L172.160661,247.368643 Z M127.957701,8.94122644 C111.524792,8.94122644 95.1271325,12.3967729 79.6644682,19.2840648 C50.6686127,32.1991697 28.4362685,55.6365017 17.0625542,85.2788314 C5.68883993,114.92072 6.53571084,147.219061 19.446747,176.224495 C31.7589811,203.883852 53.634864,225.390221 81.3352978,237.192852 L107.046775,170.173762 C96.493494,164.938874 88.1966265,155.883491 83.9398003,144.792245 C74.6127642,120.489263 86.7906093,93.1269769 111.085935,83.7970015 C135.382582,74.4661445 162.734926,86.6487088 172.062403,110.95125 C176.580516,122.724349 176.245205,135.552625 171.117714,147.072729 C166.592991,157.240586 158.81253,165.315722 148.957191,170.179051 L174.666024,237.190207 C204.131139,224.59906 227.417446,200.495742 238.939649,170.466426 C250.313363,140.824537 249.466933,108.526197 236.555456,79.5212035 C223.64442,50.5157697 200.214472,28.2759785 170.581921,16.8991207 C156.750871,11.5888626 142.340847,8.94122644 127.957701,8.94122644 L127.957701,8.94122644 Z" fill="#1D531D"/>
    <path d="M237.741318,229.574755 C236.144321,231.208048 235.345834,233.145285 235.345834,235.386526 C235.345834,237.709431 236.157931,239.682963 237.78215,241.307182 C239.397295,242.9314 241.348143,243.743497 243.634752,243.743497 C245.912288,243.743497 247.858599,242.926863 249.473744,241.293571 C251.088889,239.651204 251.896449,237.682209 251.896449,235.386526 C251.896449,233.154359 251.093426,231.217122 249.487355,229.574755 C247.863136,227.905167 245.912288,227.070386 243.634752,227.070386 C241.329995,227.070386 239.365537,227.905167 237.741318,229.574755 L237.741318,229.574755 Z M250.657875,242.586588 C248.706998,244.473948 246.36598,245.417614 243.634752,245.417614 C240.812786,245.417614 238.435473,244.451264 236.502744,242.518534 C234.570014,240.585805 233.603664,238.208492 233.603664,235.386526 C233.603664,232.455673 234.647141,230.019381 236.734126,228.077578 C238.694077,226.262809 240.994263,225.355437 243.634752,225.355437 C246.402276,225.355437 248.765978,226.335398 250.725929,228.295349 C252.68588,230.2553 253.665841,232.619002 253.665841,235.386526 C253.665841,238.235714 252.663195,240.63571 250.657875,242.586588 L250.657875,242.586588 Z M244.546669,232.038293 C244.14742,231.884037 243.58485,231.806911 242.858942,231.806911 L242.151186,231.806911 L242.151186,235.032647 L243.280874,235.032647 C243.961413,235.032647 244.492225,234.896542 244.873326,234.624326 C245.254428,234.352111 245.444976,233.912036 245.444976,233.304088 C245.444976,232.69614 245.145543,232.274213 244.546669,232.038293 L244.546669,232.038293 Z M239.238495,240.966914 L239.238495,229.846969 C239.928108,229.846969 240.960242,229.849238 242.33493,229.853775 C243.709618,229.858312 244.474078,229.865117 244.628334,229.874191 C245.508497,229.937708 246.238931,230.128256 246.819657,230.44584 C247.808706,230.990271 248.303224,231.874958 248.303224,233.099928 C248.303224,234.034534 248.042354,234.710525 247.520608,235.127922 C246.998862,235.545319 246.356897,235.794846 245.594694,235.876511 C246.29338,236.021693 246.819655,236.234925 247.173535,236.516214 C247.826852,237.042497 248.153506,237.872742 248.153506,239.006973 L248.153506,240.000554 C248.153506,240.10944 248.160311,240.218325 248.173922,240.327211 C248.187533,240.436097 248.212485,240.544982 248.248781,240.653868 L248.344056,240.966914 L245.567472,240.966914 C245.476734,240.613034 245.417755,240.100369 245.390533,239.428904 C245.363312,238.75744 245.304332,238.303754 245.213594,238.067834 C245.068412,237.677659 244.796201,237.405447 244.396952,237.251192 C244.179179,237.160454 243.847989,237.101474 243.40337,237.074253 L242.763667,237.033421 L242.151186,237.033421 L242.151186,240.966914 L239.238495,240.966914 Z" fill="#1D531D"/>
  </g>
</svg>

<svg width="256" height="248" xmlns="http://www.w3.org/2000/svg" preserveAspectRatio="xMidYMid"><path d="M143.337 167.832c22.063-8.473 33.082-33.231 24.612-55.301-8.47-22.07-33.222-33.092-55.284-24.62-22.063 8.473-33.081 33.232-24.612 55.302a42.796 42.796 0 0 0 24.612 24.619l-28.823 75.13C20.3 218.564-11.44 147.26 12.949 83.698c24.389-63.562 95.67-95.311 159.212-70.915 63.541 24.397 95.281 95.7 70.892 159.262a123.254 123.254 0 0 1-70.892 70.915l-28.824-75.129" fill="#3DA639"/><path d="M172.16 247.369a4.404 4.404 0 0 1-4.113-2.828l-28.824-75.13a4.408 4.408 0 0 1 2.535-5.694c9.571-3.675 17.14-10.86 21.31-20.23 4.17-9.369 4.442-19.802.767-29.376-7.585-19.766-29.831-29.673-49.59-22.085-19.76 7.589-29.664 29.842-22.078 49.607a38.446 38.446 0 0 0 22.077 22.084 4.408 4.408 0 0 1 2.535 5.694l-28.824 75.13a4.406 4.406 0 0 1-5.692 2.535c-31.83-12.22-56.998-36.11-70.867-67.266-13.868-31.156-14.778-65.85-2.56-97.69C21.051 50.28 44.933 25.104 76.08 11.23c31.146-13.873 65.829-14.783 97.66-2.562 31.83 12.221 56.998 36.11 70.866 67.266 13.869 31.156 14.778 65.85 2.56 97.69-12.942 33.732-39.706 60.504-73.427 73.451a4.397 4.397 0 0 1-1.578.293ZM127.959 8.94c-16.433 0-32.83 3.456-48.294 10.343C50.67 32.2 28.436 55.637 17.063 85.28c-11.374 29.642-10.527 61.94 2.384 90.945 12.312 27.66 34.188 49.166 61.888 60.969l25.712-67.02a47.285 47.285 0 0 1-23.107-25.38c-9.327-24.304 2.85-51.666 27.146-60.996 24.297-9.33 51.649 2.852 60.976 27.154 4.519 11.773 4.183 24.602-.944 36.122-4.525 10.168-12.305 18.243-22.16 23.106l25.708 67.011c29.465-12.59 52.751-36.694 64.274-66.724 11.373-29.641 10.527-61.94-2.385-90.945-12.91-29.005-36.34-51.245-65.973-62.622-13.831-5.31-28.241-7.958-42.624-7.958ZM237.741 229.575c-1.597 1.633-2.395 3.57-2.395 5.812 0 2.322.812 4.296 2.436 5.92 1.615 1.624 3.566 2.436 5.853 2.436 2.277 0 4.224-.816 5.839-2.45 1.615-1.642 2.422-3.61 2.422-5.906 0-2.233-.803-4.17-2.409-5.812-1.624-1.67-3.575-2.505-5.852-2.505-2.305 0-4.27.835-5.894 2.505Zm12.917 13.012c-1.951 1.887-4.292 2.83-7.023 2.83-2.822 0-5.2-.966-7.132-2.898-1.933-1.933-2.9-4.31-2.9-7.132 0-2.931 1.044-5.368 3.131-7.31 1.96-1.814 4.26-2.722 6.9-2.722 2.768 0 5.132.98 7.092 2.94s2.94 4.324 2.94 7.092c0 2.849-1.003 5.249-3.008 7.2Zm-6.111-10.549c-.4-.154-.962-.231-1.688-.231h-.708v3.226h1.13c.68 0 1.211-.136 1.592-.409.381-.272.572-.712.572-1.32 0-.608-.3-1.03-.898-1.266Zm-5.309 8.929v-11.12c.69 0 1.722.002 3.097.007 1.375.004 2.14.011 2.293.02.88.064 1.61.254 2.192.572.989.544 1.483 1.429 1.483 2.654 0 .935-.26 1.61-.782 2.028-.522.417-1.164.667-1.926.749.698.145 1.225.358 1.579.64.653.525.98 1.356.98 2.49v.994c0 .108.006.217.02.326.014.11.038.218.075.327l.095.313h-2.777c-.09-.354-.15-.867-.176-1.538-.028-.672-.087-1.125-.177-1.361a1.348 1.348 0 0 0-.817-.817c-.218-.09-.549-.15-.994-.177l-.64-.04h-.612v3.933h-2.913Z" fill="#1D531D"/></svg>
